X: 1
T: Come Let's Be Merry   [D]
O: Playford 1726
R: waltz
Z: 2006 John Chambers <jc:trillian.mit.edu>
B: Playford "The Dancing Master, or Directions for Dancing Country Dances..." 1728
B: Peter Barnes "english country dance tunes" 1996
M: 3/4
L: 1/8
%P: 3 times
K: D
|: "D"A2 d2 e2 | f2 ef d2 | "G"d4 "(A)"A2 |"D"F2 EF D2 \
|  "D"d4 c2 | "E7"B2 e2 "(A)"A2 | "E7"B2 ^G4 | "A"A6 :|
[| "A"e2 e2 d2 | c4 A2 | "D"d4 f2 | "G"B6 \
| "Em"g4 f2 | "E7"e4 d2 | "A"c2 d2 e2 | A6 ||
|| "D"F2 E2 D2 | "(Bm)"dc de d2 | "Em"G2 F2 E2 | "A7"ed ef e2 \
|  "D"F2 E2 D2 | "G(Bm)"dc d2 "Em"e2 | "A7"A2 d2 c2 | "D"d6 |]
